public/images/icon_design.svg

<svg fill="none" height="24" viewBox="0 0 24 24" width="24" xmlns="http://www.w3.org/2000/svg"><path d="m14.4 8.79999h9.6m-9.6-6.4h9.6m-24 12.80001h24m-24 6.4h24m-21.6-20.800012h6.4c.88366 0 1.6.716342 1.6 1.600002v6.4c0 .88365-.71634 1.60001-1.6 1.60001h-6.4c-.88366 0-1.6-.71636-1.6-1.60001v-6.4c0-.88366.71634-1.600002 1.6-1.600002z" stroke="#686868"/></svg>

<svg width="24" height="24" viewBox="0 0 24 24" fill="none" xmlns="http://www.w3.org/2000/svg">
<path d="M14.4 8.79999H24M14.4 2.39999H24M0 15.2H24M0 21.6H24M2.4 0.799988H8.8C9.68366 0.799988 10.4 1.51633 10.4 2.39999V8.79999C10.4 9.68364 9.68366 10.4 8.8 10.4H2.4C1.51634 10.4 0.8 9.68364 0.8 8.79999V2.39999C0.8 1.51633 1.51634 0.799988 2.4 0.799988Z" stroke="#686868"/>
</svg>
